X: 4325
T: Bogha Bride
R: reel
M: 4/4
K: Amajor
K: F#m
f2cf ecBc|~f2ce faga|f2cf ecBc|AFAc e2 ce|
f2cf ecBc|~f2ce faga|f2cf ecBc|AFAc ecBA|
~B3c BAFE|FABc B4|BABc dcde|f/g/agf ecBA|
~B3c BAFE|FABc ~B3c|BABc dcde|g/a/bag fece:|

